X: 33439
T: Rabbit In The Field, The
R: jig
M: 6/8
K: Gmajor
d2B ~G3|ded cBA|BAG EDB,|EDB, ~A,3|
G,B,D G,B,D|EFG ABc|B2G dBG|1 AGF GBc:|2 AGF GAB||
ded BAB|def gfe|edB gdB|gdB ~A3|
GBd GBd|bag e/f/ge|edB gdB|AGF GAB:|

